build/img/section-separator.svg

<svg width="296" height="16" viewBox="0 0 296 16" fill="none" xmlns="http://www.w3.org/2000/svg">
<path d="M139.483 16C134.341 16 130.806 12.48 127.913 9.92C125.342 7.68 122.45 5.12 119.236 5.12C118.271 5.12 117.307 5.44 116.986 5.76C115.7 6.4 114.093 7.68 114.415 10.24C114.736 11.52 115.379 12.8 116.343 13.44C117.307 14.08 118.914 14.08 119.878 13.12C120.2 12.8 120.843 12.8 121.164 13.12C121.485 13.44 121.485 14.08 121.164 14.4C119.557 16.32 117.307 16 115.379 15.04C114.093 14.08 112.808 12.48 112.486 10.24C112.165 7.68 113.451 5.44 116.022 4.16C116.986 3.84 117.95 3.52 119.236 3.52C123.414 3.2 126.628 6.08 129.52 8.64C133.377 12.16 136.591 15.04 141.412 14.08C143.34 13.76 144.947 12.8 145.911 11.2C146.875 9.6 147.197 8 146.554 6.08C145.911 3.52 143.661 2.56 142.054 2.24C140.126 1.92 138.519 2.88 137.876 4.16C137.555 4.48 137.233 4.8 136.591 4.48C136.269 4.16 135.948 3.84 136.269 3.2C137.233 0.96 139.805 0 142.054 0C144.947 0.32 147.518 2.24 148.161 5.12C148.803 7.36 148.482 9.92 147.518 11.84C146.232 13.76 144.304 15.04 142.054 15.36C141.09 16 140.447 16 139.483 16Z" fill="#878183"/>
<path d="M139.683 6.46464C140.651 5.68872 140.803 4.27857 140.024 3.31497C139.245 2.35138 137.828 2.19925 136.861 2.97517C135.893 3.75109 135.74 5.16124 136.519 6.12483C137.299 7.08842 138.715 7.24056 139.683 6.46464Z" fill="#878183"/>
<path d="M120.772 14.6084C121.74 13.8325 121.893 12.4223 121.114 11.4588C120.334 10.4952 118.918 10.343 117.95 11.1189C116.983 11.8949 116.83 13.305 117.609 14.2686C118.388 15.2322 119.805 15.3843 120.772 14.6084Z" fill="#878183"/>
<path d="M156.195 16C155.553 16 154.91 16 154.267 15.68C151.696 15.36 149.768 14.08 148.803 12.16C147.518 10.24 147.197 7.68 148.161 5.44C148.803 2.56 151.375 0.64 154.267 0.32C156.838 0 159.088 1.28 160.374 3.52C160.695 3.84 160.374 4.48 160.052 4.8C159.731 5.12 159.088 4.8 158.767 4.48C158.124 2.88 156.517 2.24 154.588 2.56C152.982 2.56 150.732 3.84 150.089 6.4C149.446 8.32 149.768 10.24 150.732 11.52C151.696 12.8 152.982 13.76 155.231 14.4C160.052 15.36 163.587 12.48 167.123 8.96C170.015 6.4 173.229 3.52 177.407 3.84C178.693 3.84 179.657 4.16 180.621 4.48C183.192 5.76 184.478 8 184.156 10.56C183.835 12.48 182.871 14.4 181.264 15.04C179.657 16 177.086 16 175.479 14.4C175.157 14.08 175.157 13.44 175.479 13.12C175.8 12.8 176.443 12.8 176.764 13.12C177.729 14.08 179.014 14.08 180.3 13.44C181.264 12.8 182.228 11.52 182.228 10.24C182.549 8 180.942 6.72 179.657 6.08C179.014 5.76 178.05 5.44 177.407 5.44C174.193 5.44 170.979 7.68 168.73 10.24C165.194 12.48 161.338 16 156.195 16Z" fill="#878183"/>
<path d="M159.691 6.20196C160.47 5.23836 160.317 3.82821 159.35 3.05229C158.382 2.27637 156.966 2.42851 156.186 3.3921C155.407 4.35569 155.56 5.76584 156.528 6.54176C157.495 7.31768 158.912 7.16555 159.691 6.20196Z" fill="#878183"/>
<path d="M178.368 14.2716C179.147 13.3081 178.994 11.8979 178.027 11.122C177.059 10.3461 175.643 10.4982 174.863 11.4618C174.084 12.4254 174.237 13.8355 175.205 14.6115C176.172 15.3874 177.589 15.2352 178.368 14.2716Z" fill="#878183"/>
<path d="M293.429 9.92H182.549C181.907 9.92 181.585 9.6 181.585 8.96C181.585 8.32 181.907 8 182.549 8H293.429C294.072 8 294.393 8.32 294.393 8.96C294.393 9.6 294.072 9.92 293.429 9.92Z" fill="#878183"/>
<path d="M113.451 9.92H2.57112C1.92834 9.92 1.60695 9.6 1.60695 8.96C1.60695 8.32 1.92834 8 2.57112 8H113.451C114.093 8 114.415 8.32 114.415 8.96C114.415 9.6 113.772 9.92 113.451 9.92Z" fill="#878183"/>
<path d="M2.57112 11.52C3.99111 11.52 5.14224 10.3738 5.14224 8.96C5.14224 7.54615 3.99111 6.4 2.57112 6.4C1.15113 6.4 0 7.54615 0 8.96C0 10.3738 1.15113 11.52 2.57112 11.52Z" fill="#878183"/>
<path d="M293.429 11.52C294.849 11.52 296 10.3738 296 8.96C296 7.54615 294.849 6.4 293.429 6.4C292.009 6.4 290.858 7.54615 290.858 8.96C290.858 10.3738 292.009 11.52 293.429 11.52Z" fill="#878183"/>
</svg>

<svg width="296" height="16" fill="none" xmlns="http://www.w3.org/2000/svg"><path d="M139.483 16c-5.142 0-8.677-3.52-11.57-6.08-2.571-2.24-5.463-4.8-8.677-4.8-.965 0-1.929.32-2.25.64-1.286.64-2.893 1.92-2.571 4.48.321 1.28.964 2.56 1.928 3.2.964.64 2.571.64 3.535-.32.322-.32.965-.32 1.286 0 .321.32.321.96 0 1.28-1.607 1.92-3.857 1.6-5.785.64-1.286-.96-2.571-2.56-2.893-4.8-.321-2.56.965-4.8 3.536-6.08.964-.32 1.928-.64 3.214-.64 4.178-.32 7.392 2.56 10.284 5.12 3.857 3.52 7.071 6.4 11.892 5.44 1.928-.32 3.535-1.28 4.499-2.88.964-1.6 1.286-3.2.643-5.12-.643-2.56-2.893-3.52-4.5-3.84-1.928-.32-3.535.64-4.178 1.92-.321.32-.643.64-1.285.32-.322-.32-.643-.64-.322-1.28.964-2.24 3.536-3.2 5.785-3.2 2.893.32 5.464 2.24 6.107 5.12.642 2.24.321 4.8-.643 6.72-1.286 1.92-3.214 3.2-5.464 3.52-.964.64-1.607.64-2.571.64z" fill="#878183"/><path d="M139.683 6.465a2.234 2.234 0 00.341-3.15 2.256 2.256 0 00-3.163-.34 2.234 2.234 0 00-.342 3.15 2.257 2.257 0 003.164.34zm-18.911 8.143a2.234 2.234 0 00.342-3.15 2.257 2.257 0 00-3.164-.34 2.234 2.234 0 00-.341 3.15 2.256 2.256 0 003.163.34zM156.195 16c-.642 0-1.285 0-1.928-.32-2.571-.32-4.499-1.6-5.464-3.52-1.285-1.92-1.606-4.48-.642-6.72.642-2.88 3.214-4.8 6.106-5.12 2.571-.32 4.821.96 6.107 3.2.321.32 0 .96-.322 1.28-.321.32-.964 0-1.285-.32-.643-1.6-2.25-2.24-4.179-1.92-1.606 0-3.856 1.28-4.499 3.84-.643 1.92-.321 3.84.643 5.12.964 1.28 2.25 2.24 4.499 2.88 4.821.96 8.356-1.92 11.892-5.44 2.892-2.56 6.106-5.44 10.284-5.12 1.286 0 2.25.32 3.214.64 2.571 1.28 3.857 3.52 3.535 6.08-.321 1.92-1.285 3.84-2.892 4.48-1.607.96-4.178.96-5.785-.64-.322-.32-.322-.96 0-1.28.321-.32.964-.32 1.285 0 .965.96 2.25.96 3.536.32.964-.64 1.928-1.92 1.928-3.2.321-2.24-1.286-3.52-2.571-4.16-.643-.32-1.607-.64-2.25-.64-3.214 0-6.428 2.24-8.677 4.8-3.536 2.24-7.392 5.76-12.535 5.76z" fill="#878183"/><path d="M159.691 6.202a2.234 2.234 0 00-.341-3.15 2.257 2.257 0 00-3.164.34 2.234 2.234 0 00.342 3.15 2.256 2.256 0 003.163-.34zm18.677 8.07a2.234 2.234 0 00-.341-3.15 2.257 2.257 0 00-3.164.34 2.234 2.234 0 00.342 3.15 2.256 2.256 0 003.163-.34zM293.429 9.92h-110.88c-.642 0-.964-.32-.964-.96 0-.64.322-.96.964-.96h110.88c.643 0 .964.32.964.96 0 .64-.321.96-.964.96zm-179.978 0H2.571c-.643 0-.964-.32-.964-.96 0-.64.321-.96.964-.96h110.88c.642 0 .964.32.964.96 0 .64-.643.96-.964.96z" fill="#878183"/><path d="M2.571 11.52a2.566 2.566 0 002.571-2.56 2.566 2.566 0 00-2.57-2.56A2.566 2.566 0 000 8.96a2.566 2.566 0 002.571 2.56zm290.858 0A2.566 2.566 0 00296 8.96a2.565 2.565 0 00-2.571-2.56 2.565 2.565 0 00-2.571 2.56 2.566 2.566 0 002.571 2.56z" fill="#878183"/></svg>
